X:1
T: Dutch Diamond
N:
C:Susan and Bill Swann
S:
A:
O:
R:
M:3/4
K:G
I:speed 150
%W: A1
% voice 1 (1 lines, 25 notes)
K:G
M:3/4
L:1/16
D4 |G8 G4 |A6 B2 c2 d2 |B6 c2 B2 A2 |B8 c4 |A6 E2 F2 G2 |A8 G4 |F6 D2 E2 F2 |G8 D4 |
%W: A2
% voice 1 (1 lines, 25 notes)
G8 G4 |A6 B2 c2 d2 |B6 c2 B2 A2 |B8 c4 |A6 E2 F2 G2 |A8 G4 |F6 D2 E2 F2 |G8 B2 c2 |
%W: B1
% voice 1 (1 lines, 23 notes)
d8 d4 |d6 B2 c2 d2 |e8 e4 |e4 f4 g4 |d8 c4 |B4 c4 B4 |A6 G2 F2 E2 |D4 E4 F4 |
%W: B2
% voice 1 (1 lines, 23 notes)
G8 G4 |A6 B2 c2 d2 |B6 c2 B2 A2 |B8 c4 |A6 E2 F2 G2 |A8 G4 |F6 D2 E2 F2 |G8 ||
